X:1
T: Daft Willie Dawson
C:
R:Reel
Q: 232
K:D
M:4/4
L:1/8
|:A|FD D1/2D1/2D A,D DG|FD DG F1/2G1/2A1/2F1/2 DF|GE E1/2E1/2E B,E EF|GE Ed c1/2d1/2e1/2c1/2 Ac|
dD D1/2D1/2D A,D DG|FD DG F1/2G1/2A1/2F1/2 DF|GB EG FA dA|ce Ac d1/2d1/2d dg|
fd ad bd ag|fd dg f1/2f1/2a1/2f1/2 df|ge be ge ef|ge be g1/2a1/2b1/2g1/2 eg|
fd ad bd ag|fd dg f1/2f1/2a1/2f1/2 df|gb eg fa df|ce Ac d1/2d1/2d d:|
